packages/icons/src/SVG/place-in.svg

<svg width="12" height="12" viewBox="0 0 12 12" >
<path d="M0 12H12V6H11V11H1V1H6V0H0V12Z" />
<path d="M10.9393 -9.53675e-07L12 1.06066L8.52513 4.53553L9.98959 6H5.98959V2L7.46447 3.47487L10.9393 -9.53675e-07Z" />
</svg>

<!-- Generated by IcoMoon.io -->
<svg version="1.1" xmlns="http://www.w3.org/2000/svg" width="12" height="12" viewBox="0 0 12 12">
<title>place-in</title>
<path d="M0 12h12v-6h-1v5h-10v-10h5v-1h-6v12z"></path>
<path d="M10.939 0l1.061 1.061-2.975 2.975 1.464 1.464h-4v-4l1.475 1.475 2.975-2.975z"></path>
</svg>
